neru-dark-classic/22x22/actions/institution-edit.svg

<svg xmlns="http://www.w3.org/2000/svg" width="22" height="22" version="1.1">
 <defs>
  <style id="current-color-scheme" type="text/css">
   .ColorScheme-Text { color:#d3dae3; } .ColorScheme-Highlight { color:#3fb7ff; }
  </style>
 </defs>
 <path style="fill:currentColor" class="ColorScheme-Text" d="M 11,3 C 10.811,3 10.4,3.2734 10.4,3.2734 L 4.6016,6.752 C 3.9634,7.1102 4.0497,6.9485 4,7.6348 V 9 H 5 V 17 H 4.7676 C 4.3426,17 4,17.378 4,17.848 V 19 H 13 V 18.25 L 17,14.248 V 9 H 18 V 7.6621 C 18,6.9383 17.983,7.1026 17.375,6.7383 L 11.6,3.273 C 11.6,3.273 11.189,3 11,3 Z M 7,10 H 10 V 16 H 7 Z M 12,10 H 15 V 16 H 12 Z"/>
 <path style="fill:currentColor" class="ColorScheme-Text" d="M 18.806,14 C 18.715,14 18.623,14.035 18.552,14.105 L 17.855,14.809 19.191,16.145 19.894,15.447 C 20.035,15.306 20.035,15.083 19.894,14.942 L 19.058,14.105 C 18.987,14.035 18.897,14 18.806,14 Z M 17.325,15.339 14,18.664 V 20 H 15.336 L 18.661,16.675 Z"/>
</svg>

<svg xmlns="http://www.w3.org/2000/svg" width="22" height="22"><defs><style id="current-color-scheme" type="text/css">.ColorScheme-Text{color:#d3dae3}</style></defs><path class="ColorScheme-Text" d="M11 3c-.189 0-.6.273-.6.273L4.602 6.752c-.639.358-.552.197-.602.883V9h1v8h-.232c-.425 0-.768.378-.768.848V19h9v-.75l4-4.002V9h1V7.662c0-.724-.017-.56-.625-.924L11.6 3.273S11.189 3 11 3zm-4 7h3v6H7zm5 0h3v6h-3zM18.806 14a.362.362 0 0 0-.254.105l-.697.704 1.336 1.336.703-.698a.354.354 0 0 0 0-.505l-.836-.837a.357.357 0 0 0-.252-.105zm-1.481 1.339L14 18.664V20h1.336l3.325-3.325z" fill="currentColor"/></svg>
